X: 37
T: 33. OLD REEL
B: Sam Bayard, "Hill Country Tunes" 1944 #33
S: Played by Mrs Sarah Armstrong, (near) Derry, PA, Nov 13 1943.
N: The first part occurs as the second part of "Wake Up Susan" in other collection.
R: reel
M: 4/4
L: 1/8
Z: 2010 John Chambers <jc:trillian.mit.edu>
K: D
A,2- | A,2D2 B,2D2 | A,2DE FED2 | E2A2 F2A2 | E2AB cBA2 |
A,2[D2G,2]B,2[D2G,2] | A,2DE FED2 | E2A2 "a."A3B | AGFE D2 :: A2 |
d2dA dAF[AD] | E2E2 EFGA | B2"b."Bc BAFE | D2[d2D2] [dD]ABc |
d2"c."dA dAF[AD] | E2E2 EFGA | B2Bc BAFE | D2 [d2D2] [d2D2] :|
P: VAR:
"a."A2B2 || "b."B2 || "c."d2 |]

%%sep 2 1 500
%%sep 1 1 500

